X: 1
T:the Mooncoin
R:Reel
O:Ireland
M:4/4
K:D
dAFA DFAc | dcec dAA=c | BAGF GABc \
|1(3ddd ed cABc :|2 (3ddd ec d2 ||
fg |\
fdad fdad | fdad fddf |\
e=cgc ecgc | e=cgc ecAc |
fdad fdad | fdad fddf | \
g2gf gbag | fdec d2Ac |]
